X: 1302
T: The New Mail Couch
R:Reel
N:Collected by McNamara
B:O'Neill's 1302
Z:Transcribed by Trish O'Neil
M:C|
L:1/8
K:D
(dB)|A>G (3FED FAAg|fgec dcBd|A>G (3FED FAAg|fgecd2:|
(3ABc|d2faa2fd|cded (3cBA Bc|d2faa2fd|(3cBA Bcd2(3ABc|
d2faa2fd|cded (3cBA Bc|defg abag|fgec dcdB|]


